48x48/apps/org.gnome.design.BannerViewer.svg

<svg xmlns="http://www.w3.org/2000/svg" width="48" height="48" version="1.1">
 <path style="opacity:0.2;fill-rule:evenodd" d="M 2,14 4.9472656,27.775391 2,43 H 13.052734 C 13.052734,43 16,42.999609 16,40.099609 L 13.789062,14 Z M 21.917969,14 19,16.900391 V 40.099609 C 19,42.999609 21.917969,43 21.917969,43 H 46 L 43.082031,27.775391 46,14 Z"/>
 <path style="fill:#a51822;fill-rule:evenodd" d="M 46,13 H 21.918919 L 19,15.900001 V 39.1 C 19,42 21.918919,42 21.918919,42 H 46 L 43.081081,26.775 Z m 0,0"/>
 <path style="fill:#a51822;fill-rule:evenodd" d="M 1.9999998,13 H 13.789473 L 16,39.1 C 16,42 13.052632,42 13.052632,42 H 1.9999998 L 4.9473683,26.775 Z m 0,0"/>
 <path style="fill:#f4f4f7;fill-rule:evenodd;opacity:0.1" d="M 2 13 L 2.2148438 14 L 13.789062 14 L 15.960938 39.636719 C 15.985147 39.469042 16 39.291951 16 39.099609 L 13.789062 13 L 2 13 z M 21.917969 13 L 19 15.900391 L 19 16.900391 L 21.917969 14 L 45.789062 14 L 46 13 L 21.917969 13 z M 4.8457031 27.300781 L 2 42 L 2.1933594 42 L 4.9472656 27.775391 L 4.8457031 27.300781 z M 43.183594 27.300781 L 43.082031 27.775391 L 45.808594 42 L 46 42 L 43.183594 27.300781 z"/>
 <path style="fill:#ed333b" d="M 10.908203 5 C 9.2959863 5 8 6.3138361 8 7.9472656 L 8 29 L 8 33 L 14 33 L 14 31 L 16 30 L 19 30 L 21 31 L 21 33 L 40 33 L 40 29 L 40 7.9472656 C 40 6.3138361 38.704012 5 37.091797 5 L 10.908203 5 z"/>
 <path style="opacity:0.2" d="m 24.013672,9.4006263 c -0.569131,-0.00291 -0.890707,2.1025087 -1.351563,2.4511717 -0.462245,0.34721 -2.472711,-0.0026 -2.65039,0.5625 -0.177679,0.565126 1.638986,1.535485 1.8125,2.103516 0.173515,0.566577 -0.76611,2.457025 -0.306641,2.808594 0.45808,0.353021 1.89962,-1.155244 2.46875,-1.152344 0.56913,0.0015 1.998127,1.522491 2.458984,1.173828 0.462245,-0.348663 -0.462835,-2.249329 -0.285156,-2.814453 0.179068,-0.565124 2.001641,-1.517407 1.828125,-2.083984 -0.174902,-0.568027 -2.188403,-0.234369 -2.646484,-0.585938 -0.459468,-0.351568 -0.760384,-2.4614407 -1.328125,-2.4628907 z m -5.501953,9.0996097 c -0.569227,-0.0029 -0.887286,2.102557 -1.34961,2.451172 -0.460936,0.347163 -2.47268,-0.0025 -2.65039,0.5625 -0.177711,0.5665 1.637002,1.535062 1.810547,2.101562 0.174933,0.566501 -0.764801,2.459027 -0.306641,2.810547 0.459547,0.351521 1.901475,-1.155244 2.470703,-1.152343 0.569228,0.0029 1.996661,1.522944 2.458984,1.175781 0.462325,-0.348615 -0.460913,-2.249906 -0.283203,-2.816407 0.17771,-0.565046 1.999718,-1.517483 1.826172,-2.083984 -0.173545,-0.566506 -2.186937,-0.232964 -2.646484,-0.585937 -0.458159,-0.351521 -0.760849,-2.459991 -1.330078,-2.462891 z m 11,0 c -0.569217,-0.0029 -0.888684,2.102557 -1.34961,2.451172 -0.462315,0.347163 -2.472684,-0.0025 -2.65039,0.5625 -0.177707,0.5665 1.638959,1.535062 1.8125,2.101562 0.173542,0.566501 -0.766745,2.459027 -0.308594,2.810547 0.459537,0.351521 1.901487,-1.155244 2.470703,-1.152343 0.567829,0.0029 1.998057,1.522944 2.458984,1.175781 0.462315,-0.348615 -0.460909,-2.249906 -0.283203,-2.816407 0.177708,-0.565046 2.001102,-1.517483 1.826172,-2.083984 C 33.314739,20.982558 31.3019,21.3161 30.84375,20.963127 30.384211,20.611606 30.080935,18.503136 29.511719,18.500236 Z"/>
 <path style="fill:#f4f4f7" d="m 26.444778,16.348067 c -0.460857,0.348663 -1.889234,-1.172379 -2.458364,-1.173832 -0.56913,-0.0029 -2.011388,1.505062 -2.469468,1.152041 -0.459469,-0.351569 0.480289,-2.243066 0.306774,-2.809643 -0.173514,-0.568031 -1.989178,-1.537023 -1.811499,-2.102148 0.177679,-0.565124 2.18768,-0.215008 2.649925,-0.562218 0.460856,-0.348663 0.781512,-2.4551718 1.350643,-2.452266 0.567741,0.00145 0.870352,2.110866 1.32982,2.462434 0.458081,0.351569 2.470858,0.01889 2.64576,0.586917 0.173516,0.566577 -1.649088,1.51959 -1.828156,2.084714 -0.177679,0.565124 0.746809,2.465338 0.284565,2.814001 z m 0,0"/>
 <path style="fill:#f4f4f7" d="m 20.945898,25.448435 c -0.462324,0.347163 -1.890948,-1.17222 -2.460176,-1.175124 -0.569228,-0.0029 -2.010348,1.504856 -2.469895,1.153335 -0.45816,-0.35152 0.481761,-2.244211 0.306828,-2.810712 -0.173545,-0.5665 -1.988134,-1.53536 -1.810423,-2.10186 0.17771,-0.565048 2.188057,-0.21498 2.648993,-0.562143 0.462324,-0.348615 0.781648,-2.454834 1.350875,-2.451928 0.569229,0.0029 0.871892,2.110575 1.330051,2.462096 0.459547,0.352973 2.472671,0.02033 2.646216,0.586836 0.173546,0.566501 -1.649373,1.519383 -1.827083,2.08443 -0.17771,0.5665 0.746939,2.466455 0.284614,2.81507 z m 0,0"/>
 <path style="fill:#f4f4f7" d="m 31.945757,25.448435 c -0.460927,0.347163 -1.890909,-1.17222 -2.458738,-1.175124 -0.569216,-0.0029 -2.011694,1.504856 -2.471231,1.153335 -0.458151,-0.35152 0.481751,-2.244211 0.308209,-2.810712 -0.173541,-0.5665 -1.989481,-1.53536 -1.811774,-2.10186 0.177706,-0.565048 2.188012,-0.21498 2.650327,-0.562143 0.460926,-0.348615 0.780243,-2.454834 1.34946,-2.451928 0.569216,0.0029 0.871872,2.110575 1.331411,2.462096 0.45815,0.352973 2.471232,0.02033 2.644774,0.586836 0.17493,0.566501 -1.649339,1.519383 -1.827047,2.08443 -0.177706,0.5665 0.746923,2.466455 0.284609,2.81507 z m 0,0"/>
 <path style="fill:#cccccc;fill-rule:evenodd" d="m 19,30 v 8.966667 c 0,-1.619923 1.180078,-2.933334 2.8,-2.933334 h 15.300333 c 0,0 2.899667,-0.166667 2.899667,-3.1 C 40,31.307682 38.725983,30 37.100333,30 H 21.8 Z"/>
 <path style="fill:#cccccc" d="M 10.899667,30 C 9.2797447,30 8,31.313411 8,32.933333 c 0,1.619922 1.2797447,3.1 2.899667,3.1 H 13 c 1.833333,0 3,1.438023 3,2.933334 V 30 Z"/>
 <path style="opacity:0.1;fill-rule:evenodd" d="M 10.900391,30 C 9.2804663,30 8,31.313672 8,32.933594 c 0,0.170052 0.021695,0.33654 0.048828,0.501953 C 8.2805559,32.053646 9.4508628,31 10.900391,31 c 8.901292,0 16.969142,0 26.199218,0 1.476765,0 2.652352,1.083644 2.857422,2.5 C 39.98287,33.322705 40,33.136511 40,32.933594 40,31.307943 38.725259,30 37.099609,30 28.484715,30 18.853964,30 10.900391,30 Z"/>
 <path style="fill:#f4f4f7;opacity:0.2" d="M 10.908203 5 C 9.2959864 5 8 6.3138361 8 7.9472656 L 8 8.9472656 C 8 7.3138361 9.2959864 6 10.908203 6 L 37.091797 6 C 38.704012 6 40 7.3138361 40 8.9472656 L 40 7.9472656 C 40 6.3138361 38.704012 5 37.091797 5 L 10.908203 5 z"/>
</svg>

<svg xmlns="http://www.w3.org/2000/svg" width="48" height="48"><path style="opacity:.2;fill-rule:evenodd" d="m2 14 2.947 13.775L2 43h11.053S16 43 16 40.1L13.79 14zm19.918 0L19 16.9v23.2c0 2.9 2.918 2.9 2.918 2.9H46l-2.918-15.225L46 14z"/><path style="fill:#a51822;fill-rule:evenodd" d="M46 13H21.919L19 15.9v23.2c0 2.9 2.919 2.9 2.919 2.9H46l-2.919-15.225zM2 13h11.79L16 39.1c0 2.9-2.947 2.9-2.947 2.9H2l2.947-15.225zm0 0"/><path style="fill:#f4f4f7;fill-rule:evenodd;opacity:.1" d="m2 13 .215 1h11.574l2.172 25.637c.024-.168.039-.345.039-.537L13.79 13H2zm19.918 0L19 15.9v1l2.918-2.9h23.871L46 13H21.918zM4.846 27.3 2 42h.193l2.754-14.225-.101-.474zm38.338 0-.102.475L45.809 42H46l-2.816-14.7z"/><path style="fill:#ed333b" d="M10.908 5C9.296 5 8 6.314 8 7.947V33h6v-2l2-1h3l2 1v2h19V7.947C40 6.314 38.704 5 37.092 5H10.908z"/><path style="opacity:.2" d="M24.014 9.4c-.57-.002-.891 2.103-1.352 2.452-.462.347-2.473-.003-2.65.562-.178.565 1.639 1.536 1.812 2.104.174.566-.766 2.457-.306 2.808.458.353 1.9-1.155 2.468-1.152.57.002 1.998 1.523 2.46 1.174.462-.349-.464-2.25-.286-2.815.18-.565 2.002-1.517 1.828-2.084-.175-.568-2.188-.234-2.646-.585-.46-.352-.76-2.462-1.328-2.463zm-5.502 9.1c-.57-.003-.888 2.103-1.35 2.451-.46.348-2.473-.002-2.65.563-.178.566 1.637 1.535 1.81 2.101.175.567-.765 2.46-.306 2.811.46.352 1.901-1.155 2.47-1.152.57.003 1.997 1.523 2.46 1.175.462-.348-.462-2.25-.284-2.816.178-.565 2-1.517 1.826-2.084-.173-.566-2.187-.233-2.646-.586-.458-.351-.761-2.46-1.33-2.463zm11 0c-.57-.003-.889 2.103-1.35 2.451-.462.348-2.473-.002-2.65.563-.178.566 1.639 1.535 1.812 2.101.174.567-.767 2.46-.308 2.811.46.352 1.901-1.155 2.47-1.152.568.003 1.998 1.523 2.46 1.175.462-.348-.462-2.25-.284-2.816.178-.565 2.001-1.517 1.826-2.084-.173-.566-2.186-.233-2.644-.586-.46-.351-.763-2.46-1.332-2.463z"/><path style="fill:#f4f4f7" d="M26.445 16.348c-.461.349-1.89-1.172-2.459-1.174-.569-.003-2.011 1.505-2.47 1.152-.459-.351.481-2.243.308-2.81-.174-.567-1.99-1.536-1.812-2.102.178-.565 2.188-.215 2.65-.562.461-.348.782-2.455 1.35-2.452.569.001.871 2.11 1.33 2.462.459.352 2.471.02 2.646.587.174.567-1.649 1.52-1.828 2.085-.177.565.747 2.465.285 2.814zM20.946 25.448c-.462.348-1.891-1.172-2.46-1.175-.57-.003-2.01 1.505-2.47 1.154-.458-.352.482-2.245.307-2.811-.174-.567-1.988-1.535-1.81-2.102.177-.565 2.187-.215 2.648-.562.463-.349.782-2.455 1.351-2.452.57.003.872 2.11 1.33 2.462.46.353 2.473.02 2.646.587.174.566-1.649 1.52-1.827 2.084-.177.567.747 2.467.285 2.815zM31.946 25.448c-.461.348-1.891-1.172-2.459-1.175-.57-.003-2.012 1.505-2.471 1.154-.458-.352.482-2.245.308-2.811-.174-.567-1.99-1.535-1.812-2.102.178-.565 2.188-.215 2.65-.562.461-.349.78-2.455 1.35-2.452.57.003.872 2.11 1.331 2.462.459.353 2.472.02 2.645.587.175.566-1.65 1.52-1.827 2.084-.178.567.747 2.467.285 2.815zm0 0"/><path style="fill:#ccc;fill-rule:evenodd" d="M19 30v8.967c0-1.62 1.18-2.934 2.8-2.934h15.3s2.9-.166 2.9-3.1C40 31.308 38.726 30 37.1 30H21.8z"/><path style="fill:#ccc" d="M10.9 30C9.28 30 8 31.313 8 32.933c0 1.62 1.28 3.1 2.9 3.1H13c1.833 0 3 1.438 3 2.934V30z"/><path style="opacity:.1;fill-rule:evenodd" d="M10.9 30C9.28 30 8 31.314 8 32.934c0 .17.022.336.049.502C8.28 32.054 9.45 31 10.9 31h26.2c1.476 0 2.652 1.084 2.857 2.5.026-.177.043-.363.043-.566C40 31.308 38.725 30 37.1 30H10.9z"/><path style="fill:#f4f4f7;opacity:.2" d="M10.908 5C9.296 5 8 6.314 8 7.947v1C8 7.314 9.296 6 10.908 6h26.184C38.704 6 40 7.314 40 8.947v-1C40 6.314 38.704 5 37.092 5H10.908z"/></svg>
